X: 20691
T: the Cheif is Killed
N: Yes, "chief" is misspelt here.
%R: air, march
B: James Oswald "The Caledonian Pocket Companion" v.2 p.69 #1
Z: 2019 John Chambers <jc:trillian.mit.edu>
M: C
L: 1/8
K: Dmix
%%slurgraces 1
%%graceslurs 1
|:"_Plaintive"\
f2 fe d2 BA | A2 Bd e2 e2 |\
f2 (fe) d2 (BA) | A2 Bc d4 ::\
a2 (ag) f2 (fe) | d2 (ef) g2 f2 |
a2 (ag) f2 (ed) | c2 (BA) A4 |\
f2 (fe) d2 (BA) | A2 (Bd) e2 e2 |\
{de}f2 fe {e}d2 (BA) | A2 (Bd) d4 :|
